!!!OTL-incipit: ZU WESEL AUF DER SCHANZ, DA STAND EIN JUNGER KNABE
!!!ARE: Europa, Mitteleuropa, Deutschland, Westfalen
!!!SCT: Z0088
!!!TXL: @@DE
!!!YEM: Copyright 1995, estate of Helmut Schaffrath.
**kern	**text
*ICvox	*
*M2/4	*
*k[f#]	*
*G:	*
!LO:TX:a:t=Weſtphalen.	!
{8dd	Ʒu
=1	=1
8b/	We-
8b/	-ſel
8b/	auf
8b/	der
=2	=2
4.b/}	Schanʒ,
{8a	da
=3	=3
8b/	ſtand
8a	ein
8b/	junger
8cc	.
=4	=4
8b/	Knabe,
8a	.
8r}	.
{8a	lebt
=5	=5
8a	wohl,
8a	lebt
8a	wohl,
8a	ihr
=6	=6
4a	Lie-
8a}	-ben,
{8b/	die
=7	=7
8cc	ihr
8b	da-
8cc	-heim
8dd	ge-
=8	=8
8cc	-blie-
8b	-ben,
8r}	.
{8dd	mich
=9	=9
8ee	ſcheid't
8dd	von
8ee	al-
8ff#	-ler
=10	=10
8ggL	Noth
16ff#	.
16ee	.
8ddJ}	.
{8cc	der
=11	=11
4b/	bit-
4a	-tre
=12	=12
4.g}	Tod.
==	==
!!!AGN: Sagen - Lied, Romanze, Tod, Soldaten - Lied, napoleonischer Krieg
!!!ONB: ESAC (Essen Associative Code) Database: ZUCCAL
!!!AMT: simple duple
!!!AIN: vox
!!!EED: Helmut Schaffrath
!!!EEV: 1.0
!!!GTL: I. Ernste Romanzen und Sagen.
!!!URL-scan: https://www.digitale-sammlungen.de/de/view/bsb11160571?page=176
!!!ENC: Anna Maria Matuszewska
!!!EEV: 2025/01/27
*-	*-
